X:270
T:Macarena
C:Los del Rio
Z:Jack Campin, http://www.campin.me.uk/
F:Jack Campin's Nine-Note Tunebook
% last edit 03-02-2013
M:4/4
L:1/16
Q:1/4=124
K:G
  B2BB- BB2B- BBBA Bd-d2|B2BB- B2BB- BBBB  A2G2 |
  zBB2  B2d2  zBB2 B2d2 |z2BB  B2BB  B2B2  A2G2 |
  z2B2  B2d2  z2B2 B2d2 |zBBB  B2BB- BBB2  A2G2||
|:G2GG  GGGG  GGGG GBDD |G2GG- GGGG  GGGG  E2D2 |
  G2GG  GGGG  GGGG GBz2 |d6      Bd  BG-G2 z4  :|

